azure-patterns/svg-storage-mono.svg

<svg xmlns="http://www.w3.org/2000/svg" viewBox="0 0 24 24"><path d="M0 2v20h24V2H0zm23 19H1V6h22v15zM1 5V3h22v2H1zm9 4v3H5V9h5m1-1H4v5h7V8zm8 1v3h-5V9h5m1-1h-7v5h7V8zm-10 7v3H5v-3h5m1-1H4v5h7v-5zm8 1v3h-5v-3h5m1-1h-7v5h7v-5z"/></svg>

<svg xmlns="http://www.w3.org/2000/svg" viewBox="0 0 24 24">
                                
                            
  <path d="M0,2v20h24V2H0z M23,21H1V6h22V21z M1,5V3h22v2H1z M10,9v3H5V9H10 M11,8H4v5h7V8L11,8z M19,9v3h-5V9H19 M20,8h-7v5h7V8L20,8z M10,15v3H5v-3H10 M11,14H4v5h7V14L11,14z M19,15v3h-5v-3H19 M20,14h-7v5h7V14L20,14z"></path>
</svg>
